X: 41120
T: Trip To Spanish Point
R: reel
M: 4/4
K: Adorian
|:"4x" EAAE ABcA|=FFF FFF FF|GD G/B/d gdBd|[ce][ce][ce] [Bd][Bd][Bd] [A2c2]:|
|:ABcB ABc2|Bcdc Bcd2|ABcB ABcA|^GABG EFGB|
ABcd ABcA|Bcdc BcdB|cBAc BA^GB|AEEE A3z:|

